X:808
T:O'Donnell's Return
S:Highland Sessions, BBC 2005
Z:Nigel Gatherer
N:Transposed from Gm
M:4/4
L:1/8
K:Edor
dc | B2 E2 EFGA  | BcBA FEFA  | B2 E2 E2 FE | D3 E F2 A2 |
     B2 E2 EFGA  | BcBA FEFA  | BABc  d2 F2 | E4   E2   :|
FA | B2 e2 e2 de | f3 e d2 B2 | A2 F2 d2 F2 | AGFE DEFA  |
     B2 e2 e2 de | f3 e d2 B2 | A2 F2 d2 F2 | E4   E2   :|
